24x24/actions/view-sort.svg

<svg height="24" viewBox="0 0 6.35 6.35" width="24" xmlns="http://www.w3.org/2000/svg"><g fill="#8b9cbe"><path d="m4.233 2.91v1.875l-.606-.606-.187.187.926.926.926-.926-.187-.187-.607.606v-1.875zm-3.175-1.852v.265h1.852v-.265zm0 .794v.265h1.323v-.265zm0 .794v.264h1.852v-.264zm0 2.646v-.265h1.852v.265zm0-.794v-.265h1.852v.265zm0-.794v-.264h1.852v.264z"/><path d="m3.44 3.704v-1.874l-.607.607-.187-.187.926-.926.926.926-.187.187-.607-.607v1.875z"/></g></svg>

<svg height="24" viewBox="0 0 6.35 6.35" width="24" xmlns="http://www.w3.org/2000/svg"><g style="fill:currentColor;fill-opacity:1;stroke:none;color:#8b9cbe"><path d="M4.233 2.91v1.875l-.606-.606-.187.187.926.926.926-.926-.187-.187-.607.606V2.91zM1.058 1.058v.265H2.91v-.265zM1.058 1.852v.265h1.323v-.265zM1.058 2.646v.264H2.91v-.264zM1.058 5.292v-.265H2.91v.265zM1.058 4.498v-.265H2.91v.265zM1.058 3.704V3.44H2.91v.264z"/><path d="M3.44 3.704V1.83l-.607.607-.187-.187.926-.926.926.926-.187.187-.607-.607v1.875z"/></g></svg>
